X:123
M:2/4
L:1/8
K:G
|: d2 dB | c/d/f/g/ d/B/G | gf dB | d/e/d BG | 
c2 cB | c/d/e/d/ BG | gf dB | d/e/d BG :|| 

